X:201
%%pagewidth 9in
%%vocalfont Baskerville10Pro 14
T:Queen Dido, or Troy town
M:C
L:1/8
K:G
%%score 1 2
V:1 clef-treble
V:2 clef-bass octave=-1
%%%%pos vol above
[V:1][B,DG]2[B,DG]2 G3G & x4B,2x2|[EGA]2[DFc]2 [DGB]2d2 &x6DE|[Fc]2[GB]2 A2[FAd]2|d2^c2 [FAd]4 &[EA]4x4|
w:When Troy town for ten years' wars With-stood the Greeks in man-ful wise;
[V:2]G2F2E4|C2D2G,2B2|[Ac]2[Gd]2 [Fd]2D2|A4D4|
[V:1][FAd]2[FAd]d [Gd]2[GB]2|[Gce]2[FAd]c [GB]2d2 & x6DE|[Fc]2[GB]2 A2[FAd]2|d2^c2 [FAd]4 & [EA]4x4||
w:Yet did their foes in-crease so* fast, That to re-sist none could suf-fice.
[V:2]d2=c2B2e2|c2d2 G2B2|A2G2 F2D2|A4 D4|
[V:1][=FAd]2[E^GB]c [CA]2[C^Fc]2|[D=GB]2[EA]G [A,F]2[DA]2|[CE]2[CE]2[B,D]2[DG]A|[DGB]2[CFA]2[B,G]4||
w:Waste lie those walls that were so* good, And corn now grows where* Troy town stood.
[V:2]D2E2 A2A,2|B,2C2 D2FG|A2EF G2B,C|D2D,2 G,4||

